X:1
T:Immigrant Song, Led Zeppelin (bass)[Seppin, forums]
A: Led Zeppelin
M:4/4
L:1/8
Q:1/4=102
K:A
z8|z8|z8|z8|
z8|z8|z8|z8|
z6 A,/2E,3/2|E,E,/2E,E,E,/2 E,E,/2E,E,E,/2|E,E,/2E,3/2z E,E, A,/2A,3/2|F,F,/2zF,E,/2 F,F,/2zF,E,/2|
F,F,/2zF,E,/2 F,F,3/2F,E,/2|F,F,3/2F,E,/2 F,F,3/2F,E,/2|F,F,/2zF,E,/2 F,F,3/2F,E,/2|F,F,/2zF,E,/2 F,F,/2zF,E,/2|
F,F,3/2F,E,/2 F,A,/2A,/2 A,/2A,E,/2|E,E,/2E,E,E,/2 E,E,/2E,E,E,/2|E,E,/2E,/2 E,/2E,E,/2 E,E,/2E,/2 A,/2A,F,/2|zF,3/2F,E,/2 F,F,3/2F,E,/2|
F,F,3/2F,E,/2 F,F,/2zF,E,/2|A,/2A,/2C/2D/2 E/2F/2=G/2A/2 A,/2B,/2C/2D/2 E/2F/2=G/2A/2|B,/2C/2^D/2E/2 F/2^G/2A/2B/2 B,/2C/2^D/2E/2 F/2G/2A/2=C/2|=C/2=D/2E/2=F/2 =G/2A/2^A/2=C/2 =C/2D/2E/2=F/2 =G/2=A/2^A/2=C/2|
=C/2D/2E/2=F/2 =G/2=A/2^A/2B/2 =C/2z3F,/2|F,F, ^F/2F,E,/2 F,F, F/2F,E,/2|F,F, F/2F,E,/2 F,F, F/2F,E,/2|F,F, (3FF,E, F,F, F/2F,E,/2|
F,F, F/2F,E,/2 F,F, F/2F,E,/2|F,F, F/2F,E,/2 F,F, F/2F,E,/2|F,F,/2zF,E,/2 F,F,/2E,/2 A,/2E,3/2|E,E,/2E,E,E,/2 E,E,/2E,E,E,/2|
E,E,/2E,3/2z E,E, A,/2A,3/2|F,F,/2zF,E,/2 F,F,/2zF,E,/2|F,F,/2zF,E,/2 F,F,3/2F,E,/2|F,F,3/2F,E,/2 F,F,3/2F,E,/2|
F,F,/2zF,E,/2 F,F,3/2F,E,/2|F,F,/2zF,E,/2 F,F,/2zF,E,/2|F,F,3/2F,E,/2 F,A,/2A,/2 A,/2A,E,/2|E,E,/2E,E,E,/2 E,E,/2E,E,E,/2|
E,E,/2E,/2 E,/2E,E,/2 E,E,/2E,/2 A,/2A,F,/2|zF,3/2F,E,/2 F,F,3/2F,E,/2|F,F,3/2F,E,/2 F,F,/2zF,E,/2|A,/2A,/2^C/2D/2 E/2F/2=G/2=A/2 A,/2B,/2C/2D/2 E/2F/2=G/2A/2|
B,/2C/2^D/2E/2 F/2^G/2A/2B/2 B,/2C/2^D/2E/2 F/2G/2A/2=C/2|=C/2=D/2E/2=F/2 =G/2A/2^A/2=C/2 =C/2D/2E/2=F/2 =G/2=A/2^A/2=C/2|=C/2D/2E/2=F/2 =G/2=A/2^A/2B/2 =C/2z3F,/2|F,F,/2F,F,/2z F,F,3/2F,E,/2|
F,F,/2zF,E,/2 F,F,3/2F,E,/2|F,F,3/2F,E,/2 F,F,/2zF,E,/2|F,F,/2zF,E,/2 F,F,/2zF,E,/2|F,F,/2zF,E,/2 F,F,/2zF,E,/2|
F,F,/2zF,E,/2 F,F,/2F,/2 G,/2A,F,/2|F,F, (3^FF,E, F,F, F/2F,E,/2|F,F, F/2F,E,/2 F,3/2=C/2 =C2|F,F, F/2F,E,/2 F,F, F/2F,E,/2|
F,F, (3FF,E, F,3/2=C/2 =C=C|F,F, F/2F,E,/2 F,F, F/2F,E,/2|F,F, F/2F,E,/2 F,3/2=C3/2=C|F,F, F/2F,E,/2 F,F, Fz|
F,F, F/2F,E,/2 F,F, =C=C|F,F, F/2F,E,/2 F,F, =C/2F,/2=C|F,F, F/2F,/2E,/2E,/2 F,3/2=C=G,/2=C|F,F, F/2F,E,/2 F,3/2A,/2 =C/2E,/2=F,/2^F,/2|
zF, F/2F,E,/2 F,/2z=C=G,/2=C|F,F, F/2F,E,/2 F,3/2=C=G,/2=C|F,F, F/2F,E,/2 F,/2